X:28
T: LASST NUR DER JUGEND IHREN LAUF
N: E1023A
O: Europa, Mitteleuropa, Deutschland, Franken
R: Tanz - Lied, Walzer
M: 3/4
L: 1/8
K: G
 | G2B2B2 | B2d3
B | A2c3c | BBedd2 |
G2B2B2 | B2d3
B | A2A2dd | B4z2 |
AAddff | fed^cd2 |
A2d2f2 | fed^cd2 |
G2B2B2 | B2d3
B | A2c3c | BBedd2 |
G2B2B2 | B2d3
B | A2A2dd | B4z2

@@@ Tune index: 4712
